packages/icons/general/Tips.svg

<svg width="37" height="36" viewBox="0 0 37 36" xmlns="http://www.w3.org/2000/svg">
<g>
        <path
            fill-rule="evenodd"
            clip-rule="evenodd"
            d="M18.5 3C10.2157 3 3.5 9.71573 3.5 18V30.757C3.5 31.9958 4.50422 33 5.74299 33H18.5C26.7843 33 33.5 26.2843 33.5 18C33.5 9.71573 26.7843 3 18.5 3Z"
            fill="url(#tips_paint0_linear_2324_1469)"
        />
        <path
            d="M12.0108 25.077C11.8171 24.8813 11.7087 24.6168 11.709 24.3409C11.7093 24.065 11.8184 23.7999 12.0125 23.603L13.117 22.4986L13.0333 22.3591C12.7183 21.8498 12.4913 21.291 12.3617 20.7058C12.2506 20.2594 12.2054 19.7989 12.2274 19.3389C12.2518 19.066 12.3824 18.8132 12.591 18.6348C12.7996 18.4565 13.0696 18.3669 13.3428 18.3854C13.616 18.404 13.8706 18.5291 14.0516 18.7339C14.2327 18.9386 14.3258 19.2067 14.3109 19.4802C14.3069 19.735 14.3359 19.9891 14.3972 20.2361C14.5285 20.8374 14.8285 21.3881 15.2621 21.8237C15.4839 22.0634 15.7526 22.2548 16.0516 22.3864C16.3506 22.518 16.6736 22.5868 17.0008 22.5886C17.1554 22.587 17.3081 22.5525 17.4486 22.4875C17.5892 22.4225 17.7145 22.3285 17.8163 22.2116C18.2288 21.6983 18.1742 20.9742 17.5882 19.1096L17.4507 18.6811C17.0902 17.7144 16.879 16.6979 16.8245 15.6665C16.841 14.8771 17.1453 14.1197 17.6801 13.5367C18.215 12.9537 18.9435 12.5852 19.7288 12.5004C20.6278 12.4224 21.527 12.6343 22.2946 13.105L22.4315 13.186L23.5416 12.0759C23.7415 11.8984 24.0014 11.8036 24.2682 11.811C24.5349 11.8184 24.7884 11.9274 24.9767 12.1157C25.165 12.304 25.274 12.5575 25.2814 12.8242C25.2888 13.091 25.194 13.3509 25.0165 13.5508L23.912 14.6553L23.9969 14.7935C24.3107 15.3034 24.5376 15.862 24.6686 16.4468C24.7789 16.8933 24.8241 17.3537 24.8028 17.8136C24.7957 17.9521 24.7611 18.0879 24.7009 18.2131C24.6407 18.3383 24.5563 18.4503 24.4525 18.5426C24.3486 18.635 24.2275 18.7057 24.0962 18.7508C23.9649 18.7959 23.826 18.8144 23.6877 18.8053C23.5494 18.7961 23.4144 18.7594 23.2906 18.6974C23.1669 18.6354 23.0568 18.5493 22.9669 18.4441C22.877 18.3389 22.809 18.2168 22.7669 18.0848C22.7249 17.9529 22.7096 17.8138 22.7219 17.6756C22.7262 17.4202 22.6969 17.1656 22.6346 16.9181C22.5058 16.3158 22.2066 15.7637 21.7727 15.3275C21.5508 15.0879 21.282 14.8966 20.9827 14.7653C20.6835 14.634 20.3603 14.5656 20.0331 14.5643C19.8784 14.566 19.7257 14.6004 19.585 14.6652C19.4442 14.7299 19.3186 14.8236 19.2163 14.94C18.8051 15.452 18.858 16.1777 19.4467 18.0416L19.5828 18.4689C19.9426 19.4361 20.1533 20.453 20.2078 21.4848C20.1927 22.2743 19.8891 23.0322 19.3542 23.6153C18.8193 24.1983 18.0903 24.5662 17.3047 24.6495C16.4066 24.7276 15.5082 24.5157 14.7416 24.045L14.6034 23.9626L13.492 25.074C13.3949 25.1715 13.2795 25.2489 13.1526 25.3018C13.0257 25.3547 12.8897 25.3821 12.7524 25.3824C12.6151 25.3827 12.4792 25.3558 12.3525 25.3034C12.2258 25.251 12.1108 25.1741 12.014 25.077L12.0108 25.077Z"
            fill="white"
        />
        <defs>
            <linearGradient
                id="tips_paint0_linear_2324_1469"
                x1="18.5"
                y1="3"
                x2="18.5"
                y2="33"
                gradient-units="userSpaceOnUse">
                <stop stop-color="#F7931E" />
                <stop offset="1" stop-color="#FBB03B" />
            </linearGradient>
        </defs>
    </g>
</svg>

<svg xmlns="http://www.w3.org/2000/svg" viewBox="0 0 37 36">
    <path fill="url(#Tips_svg__a)" fill-rule="evenodd" d="M18.5 3c-8.284 0-15 6.716-15 15v12.757A2.243 2.243 0 0 0 5.743 33H18.5c8.284 0 15-6.716 15-15 0-8.284-6.716-15-15-15Z" clip-rule="evenodd"/>
    <path fill="#fff" d="M12.01 25.077a1.044 1.044 0 0 1 .002-1.474l1.105-1.104-.084-.14a5.336 5.336 0 0 1-.671-1.653 4.725 4.725 0 0 1-.135-1.367 1.05 1.05 0 0 1 1.116-.954 1.04 1.04 0 0 1 .968 1.095c-.004.255.025.51.086.756.131.601.431 1.152.865 1.588a2.384 2.384 0 0 0 1.739.765 1.094 1.094 0 0 0 .815-.377c.413-.514.358-1.238-.228-3.102l-.137-.429a10.162 10.162 0 0 1-.627-3.015A3.252 3.252 0 0 1 19.73 12.5a4.211 4.211 0 0 1 2.566.605l.136.081 1.11-1.11a1.05 1.05 0 0 1 1.436.04 1.043 1.043 0 0 1 .04 1.435l-1.105 1.104.085.139c.314.51.54 1.068.672 1.653.11.446.155.907.134 1.367a1.045 1.045 0 0 1-2.036.27 1.044 1.044 0 0 1-.045-.408 2.902 2.902 0 0 0-.087-.758 3.206 3.206 0 0 0-.862-1.59 2.38 2.38 0 0 0-1.74-.764 1.1 1.1 0 0 0-.817.376c-.41.512-.358 1.238.23 3.102l.137.427c.36.967.57 1.984.625 3.016a3.244 3.244 0 0 1-2.903 3.165 4.202 4.202 0 0 1-2.563-.605l-.139-.082-1.111 1.111a1.048 1.048 0 0 1-1.14.23 1.038 1.038 0 0 1-.338-.227h-.003Z"/>
    <defs>
        <linearGradient id="Tips_svg__a" x1="18.5" x2="18.5" y1="3" y2="33">
            <stop stop-color="#F7931E"/>
            <stop offset="1" stop-color="#FBB03B"/>
        </linearGradient>
    </defs>
</svg>
